packages/foundations/assets/icons/functional/images/environment/moon_20.svg

<svg width="20" height="20" viewBox="0 0 20 20" fill="none" xmlns="http://www.w3.org/2000/svg">
<g clip-path="url(#clip0_185_830)">
<path fill-rule="evenodd" clip-rule="evenodd" d="M10.7545 3.45014L11.1097 2.69842C11.2277 2.44875 11.1209 2.15071 10.8713 2.03272C10.7974 1.9978 10.716 1.98153 10.6344 1.98533L9.80388 2.02396C5.54607 2.22201 2.18109 5.73758 2.18109 10.0152C2.18109 14.4335 5.76281 18.0152 10.1811 18.0152C13.3043 18.0152 16.1015 16.2087 17.4146 13.4354L17.7707 12.6834C17.8889 12.4338 17.7824 12.1357 17.5328 12.0175C17.4588 11.9825 17.3774 11.9662 17.2956 11.9699L16.4645 12.0085C16.3704 12.0129 16.2759 12.015 16.1811 12.015C12.8674 12.015 10.1811 9.32876 10.1811 6.01505C10.1811 5.11549 10.3785 4.24568 10.7545 3.45014ZM8.36709 4.29305L8.30599 4.60003C8.22327 5.06328 8.18109 5.53634 8.18109 6.01505L8.1849 6.26423C8.29871 9.9842 10.9521 13.0651 14.4699 13.8316L14.7611 13.889L14.673 13.9942C13.5575 15.2532 11.9384 16.0152 10.1811 16.0152C6.86738 16.0152 4.18109 13.3289 4.18109 10.0152C4.18109 7.34188 5.93387 5.06511 8.36709 4.29305Z" fill="#1A1C1F"/>
</g>
<defs>
<clipPath id="clip0_185_830">
<rect width="20" height="20" fill="white"/>
</clipPath>
</defs>
</svg>

<svg xmlns="http://www.w3.org/2000/svg" width="20" height="20" fill="none"><g clip-path="url(#a)"><path fill="#1A1C1F" fill-rule="evenodd" d="m10.755 3.45.355-.752a.5.5 0 0 0-.476-.713l-.83.039a8 8 0 1 0 7.61 11.411l.357-.752a.5.5 0 0 0-.475-.713l-.831.038a6 6 0 0 1-5.71-8.558m-2.388.843-.061.307a8 8 0 0 0-.125 1.415l.004.25a8 8 0 0 0 6.285 7.567l.291.057-.088.105a6 6 0 0 1-10.492-3.979 6.01 6.01 0 0 1 4.186-5.722" clip-rule="evenodd"/></g><defs><clipPath id="a"><path fill="#fff" d="M0 0h20v20H0z"/></clipPath></defs></svg>
